X:6
T:Queen of Blands Minuet,The. BC.06
M:3/4
L:1/4
Q:100
S:Benjamin Cooke MS.circa 1770, F.Kidson Coll.
R:Minuet
O:England
A:x
N:Humphrey Bland(1686-1756), of Bland's Fort, Queen's County, Ireland,
N:was another Miliary Gentleman, who fought at Fontenoy, Culloden,etc, He
N:was outlived by many years by his wife Elizabeth, who died in 1816,
N:having had a full sixty years as a widow. CGP.
Z:vmp.John Bagnall
K:D
a a g | f f e | d d e | f2 e | a a ^g | b b a | B/d/ c B | A3 :|
|:A A A | A G2 | G G G | G F2 | a a g | f f e | d d e | {g}f2 e | b3 | a3 |e/g/ f e | d3 :|]

